X:61
T:GB/6a/61 Cupid the Ploughboy Version 3 of 3 
C:Sung by Mr. Young, Bilborough, Yorks, III. 08
C:Transcribed by Simon Furey and Lewis Jones
L:1/4
M:6/4
I:linebreak $
K:Gaeo
D | G2 G G2 A | B2 B A2 D | G2 G G2 A | B2 c/B/ A2 A | G2 F G A B |$ d2 d d2 c | B2 G c B A | G3- G2 d | f2 d d c B | c2 e d2 c | d2 G G2 A |$ B2 c/B/ A2 D | G2 G A B c | d2 e d2 c |
B2 G c B A | G3- G2 |]

